!!!!SEGMENT: pl-sa--3-a-i-3--002_binder-christlieb-siegmund-missa-ex-c-gloria.krn
!!!id: 17xx:588
!!!COM: Binder, Christlieb Siegmund
!!!OTL: Missa ex C – Gloria
!!!PDT: 1814
!!!SMS-siglum: PL-SA
!!!SMS-shelfmark: 3/A I 3
!!!NIFC-rismID: 1001036472
!!!URL-scan: http://bc.bdsandomierz.pl/dlibra/publication/1271/edition/1239/content
!!!ONB-nifc: UWAGA: części Mszy: Kyrie, Gloria, Credo, Sanctus, Benedictus, Agnus Dei
!!!SMS-variant:
!!!SMS-altvar:
**kern	**fba	**dynam	**kern	**dynam	**kern	**dynam	**kern	**text	**kern	**text	**kern	**text
*part6	*	*part6	*part5	*part5	*part4	*part4	*part3	*part3	*part2	*part2	*part1	*part1
*staff6	*	*	*staff5	*	*staff4	*	*staff3	*staff3	*staff2	*staff2	*staff1	*staff1
*I"Organo.	*	*	*I"Violino 2do.	*	*I"Violino Primo	*	*I"Tenore	*	*I"Alto.	*	*I"Canto.	*
*I'org	*	*	*I'vl 2	*	*I'vl 1	*	*I'T	*	*I'A	*	*I'C	*
*clefF4	*	*	*clefG2	*	*clefG2	*	*clefC4	*	*clefC3	*	*clefC1	*
*k[]	*	*	*k[]	*	*k[]	*	*k[]	*	*k[]	*	*k[]	*
*M3/4	*	*	*M3/4	*	*M3/4	*	*M3/4	*	*M3/4	*	*M3/4	*
=1	=1	=1	=1	=1	=1	=1	=1	=1	=1	=1	=1	=1
*tremolo	*	*	*	*	*	*	*	*	*	*	*	*
!LO:TX:a:i:t=all(egr)o	!	!	!LO:TX:i:a:t=all(egr)o.	!	!LO:TX:i:b:t=Gloria	!	!	!	!	!	!	!
!LO:TX:b:t=P:problem:tekst "Gloria" na pięciolinii przed kluczem basowym	!	!	!	!	!	!	!	!	!	!	!	!
!LO:TX:b:i:t=Gloria	!	!	!LO:TX:i:b:t=Gloria&colon;	!	!LO:TX:i:a:t=all(egr)o.	!	!LO:TX:i:a:t=all(egr)o.	!	!LO:TX:i:a:t=all(egr)o	!	!LO:TX:a:i:t=all(egr)o	!
8C/L	5 3	.	16cc\LL	.	16gg\LL	.	8c\	Glo-	8g\	Glo-	8ee\	Glo-
.	.	.	16ee\	.	16ccc\	.	.	.	.	.	.	.
8C/	.	.	16dd\	.	16bb\	.	16c\	-ri-	16g\	-ri-	16ee\	-ri-
.	.	.	16ee\JJ	.	16ccc\JJ	.	16c\	-a	16g\	-a	16ee\	-a
8C/	.	.	16ff\LL	.	16ddd\LL	.	8c\	in	8g\	in	8ee\	in
.	.	.	16ee\	.	16ccc\	.	.	.	.	.	.	.
8C/	.	.	16dd\	.	16bb\	.	8c\	ex-	8g\	ex-	8ee\	ex-
.	.	.	16ee\JJ	.	16ccc\JJ	.	.	.	.	.	.	.
!	!	!	!	!	!	!	!	!LO:SIC:s=-cel-	!	!LO:SIC:s=-cel-	!	!LO:SIC:s=-cel-
8C/	.	.	8ee\L	.	8gg\L	.	8c\	-el-	8g\	-el-	8ee\	-el-
!	!	!	!	!	!	!	!	!LO:SIC:s=-sis	!	!LO:SIC:s=-sis	!	!LO:SIC:s=-sis
8C/J	.	.	8ee\J	.	8ccc\J	.	8c\	-cis	8g\	-cis	8ee\	-cis
!	!	!	!	!	!	!	!	!	!	!	!LO:LB:g=original	!
=2	=2	=2	=2	=2	=2	=2	=2	=2	=2	=2	=2	=2
*	*	*	*2\right	*	*2\right	*	*	*	*	*	*	*
!LO:TX:a:t=P:problem:nieczytelny zapis bc w tym takcie	!	!	!	!	!	!	!	!	!	!	!	!
!LO:TX:i:a:t=Tutti	!	!	!	!	!	!	!	!	!	!	!	!
8C/L	6 4	.	2ff\	.	2aa\	.	8c\	in	8a\	in	8ff\	in
8C/	.	.	.	.	.	.	8c\	ex-	8a\	ex-	8ff\	ex-
!	!	!	!	!	!	!	!	!LO:SIC:s=-cel-	!	!LO:SIC:s=-cel-	!	!LO:SIC:s=-cel-
8C/	.	.	.	.	.	.	4c\	-el-	4a\	-el-	4ff\	-el-
8C/J	.	.	.	.	.	.	.	.	.	.	.	.
*Xtremolo	*	*	*	*	*	*	*	*	*	*	*	*
!	!	!	!	!	!	!	!	!LO:SIC:s=-sis	!	!LO:SIC:s=-sis	!	!LO:SIC:s=-sis
8C/L	X 5	.	4ee\	.	4gg\	.	4c\	-cis	4g\	-cis	4ee\	-cis
8C/J	X 3	.	.	.	.	.	.	.	.	.	.	.
=3	=3	=3	=3	=3	=3	=3	=3	=3	=3	=3	=3	=3
*	*	*	*tremolo	*	*tremolo	*	*2\right	*	*2\right	*	*2\right	*
!LO:TX:a:t=P:problem:mixed beam	!	!	!	!	!	!	!	!	!	!	!	!
!	!LO:SIC:s="6" z dwoma przekreśleniami	!	!	!	!	!	!	!	!	!	!	!
8F\L	X 6_	.	16dd\L	.	16ff\L	.	2.B\	De-	2.f\	De-	2.dd\	De-
.	.	.	16dd\	.	16ff\	.	.	.	.	.	.	.
8F\	.	.	16dd\	.	16ff\	.	.	.	.	.	.	.
.	.	.	16dd\J	.	16ff\J	.	.	.	.	.	.	.
8G\	.	.	16f/L	.	16dd\L	.	.	.	.	.	.	.
.	.	.	16f/	.	16dd\	.	.	.	.	.	.	.
8G\	5_ 3_	.	16f/	.	16dd\	.	.	.	.	.	.	.
.	.	.	16f/J	.	16dd\J	.	.	.	.	.	.	.
8GG/	.	.	16d/L	.	16b\L	.	.	.	.	.	.	.
.	.	.	16d/	.	16b\	.	.	.	.	.	.	.
8GG/J	.	.	16d/	.	16b\	.	.	.	.	.	.	.
.	.	.	16d/J	.	16b\J	.	.	.	.	.	.	.
*	*	*	*Xtremolo	*	*Xtremolo	*	*	*	*	*	*	*
!LO:LB:g=original	!	!	!	!	!	!	!	!	!	!	!	!
=4	=4	=4	=4	=4	=4	=4	=4	=4	=4	=4	=4	=4
!LO:TX:a:t=P:problem:mixed beam	!	!	!	!	!	!	!	!	!	!	!	!
!	!	!	!	!	!LO:TX:a:t=|:problem	!	!	!	!	!	!	!
16C'</LL	x	.	16e/LL	.	16cc\LL	.	8c\	-o	8e\	-o	8cc\	-o
!	!	!	!	!	!LO:TX:a:t=|:problem	!	!	!	!	!	!	!
16c'>\	.	.	16a/	.	16cc\	.	.	.	.	.	.	.
!	!	!	!	!	!LO:TX:a:t=|:problem	!	!	!	!	!	!	!
16B'>\	.	.	16g/	.	16b\	.	8r	.	8r	.	8r	.
!	!	!	!	!	!LO:TX:a:t=|:problem	!	!	!	!	!	!	!
16A'>\JJ	.	.	16f/JJ	.	16a\JJ	.	.	.	.	.	.	.
!	!	!	!	!	!LO:TX:b:t=|:problem	!	!	!	!	!	!	!
16G'>\LL	.	.	16e/LL	.	16g/LL	.	4r	.	4r	.	4r	.
!	!	!	!	!	!LO:TX:b:t=|:problem	!	!	!	!	!	!	!
16A'>\	.	.	16f/	.	16a/	.	.	.	.	.	.	.
!	!	!	!	!	!LO:TX:b:t=|:problem	!	!	!	!	!	!	!
16G'>\	.	.	16e/	.	16g/	.	.	.	.	.	.	.
!	!	!	!	!	!LO:TX:b:t=|:problem	!	!	!	!	!	!	!
16F'>\JJ	.	.	16d/JJ	.	16f/JJ	.	.	.	.	.	.	.
!	!	!	!	!	!LO:TX:b:t=|:problem	!	!	!	!	!	!	!
16E'>\LL	.	.	16c/LL	.	16e/LL	.	4r	.	4r	.	4r	.
!	!	!	!	!	!LO:TX:b:t=|:problem	!	!	!	!	!	!	!
16F'>\	.	.	16d/	.	16f/	.	.	.	.	.	.	.
!	!	!	!	!	!LO:TX:b:t=|:problem	!	!	!	!	!	!	!
16E'>\	.	.	16c/	.	16e/	.	.	.	.	.	.	.
!	!	!	!	!	!LO:TX:b:t=|:problem	!	!	!	!	!	!	!
16D'>\JJ	.	.	16B/JJ	.	16d/JJ	.	.	.	.	.	.	.
=5	=5	=5	=5	=5	=5	=5	=5	=5	=5	=5	=5	=5
*tremolo	*	*	*	*	*	*	*	*	*	*	*	*
!	!	!	!	!	!LO:TX:a:t=P:problem:mixed beam	!	!	!	!LO:TX:a:t=3.	!	!LO:TX:a:t=3.	!
!	!	!	!	!	!	!	!	!	!LO:N:vis=0	!	!LO:N:vis=0	!
8C/L	5 3	.	16c/LL	.	16c/LL	.	8e\	glo-	1.r	.	1.r	.
!	!	!	!	!	!	!LO:DY:b	!	!	!	!	!	!
!	!	!	!	!	!	!LO:HP:b:i:t=p.	!	!	!	!	!	!
.	.	.	16e/	.	16cc\	p	.	.	.	.	.	.
8C/	.	.	16d/	.	16b\	.	16e\	-ri-	.	.	.	.
.	.	.	16e/JJ	.	16cc\JJ	.	16e\	-a	.	.	.	.
!	!	!	!	!	!	!	!LO:LB:g=original	!	!	!	!	!
8C/	.	.	16f/LL	.	16dd/LL	.	8e\	in	.	.	.	.
.	.	.	16e/	.	16cc/	.	.	.	.	.	.	.
8C/	.	.	16d/	.	16b/	.	8e\	ex-	.	.	.	.
.	.	.	16e/JJ	.	16cc/JJ	.	.	.	.	.	.	.
!	!	!	!	!	!LO:TX:a:t=P:problem:mixed beam	!	!	!	!	!	!	!
!	!	!	!	!	!	!	!	!LO:SIC:s=-cel-	!	!	!	!
8C/	.	.	8e/L	.	8c/L	.	8e\	-el-	.	.	.	.
!	!	!	!	!	!	!	!	!LO:SIC:s=-sis	!	!	!	!
8C/J	.	.	8e/J	.	8cc\J	.	8e\	-cis	.	.	.	.
=6	=6	=6	=6	=6	=6	=6	=6	=6	=6	=6	=6	=6
8C/L	6 4	.	2f/	.	2a/	.	2f\	De-	.	.	.	.
8C/	.	.	.	.	.	.	.	.	.	.	.	.
8C/	.	.	.	.	.	.	.	.	.	.	.	.
8C/J	.	.	.	.	.	.	.	.	.	.	.	.
*Xtremolo	*	*	*	*	*	*	*	*	*	*	*	*
8C/L	5_ 3_	.	4e/	.	4g/	.	4e\	-o	.	.	.	.
8C/J	.	.	.	.	.	.	.	.	.	.	.	.
=7	=7	=7	=7	=7	=7	=7	=7	=7	=7	=7	=7	=7
*	*	*	*tremolo	*	*tremolo	*	*	*	*	*	*	*
!LO:TX:a:t=P:problem:mixed beam	!	!	!	!	!	!	!	!	!	!	!	!
8F\L	X 6_	.	16d/L	.	16f/L	.	2.d\	De-	2.r	.	2.r	.
.	.	.	16d/	.	16f/	.	.	.	.	.	.	.
8F\	.	.	16d/	.	16f/	.	.	.	.	.	.	.
.	.	.	16d/J	.	16f/J	.	.	.	.	.	.	.
8G\	5_ 3_	.	16B/L	.	16d/L	.	.	.	.	.	.	.
.	.	.	16B/	.	16d/	.	.	.	.	.	.	.
8G\	.	.	16B/	.	16d/	.	.	.	.	.	.	.
.	.	.	16B/J	.	16d/J	.	.	.	.	.	.	.
8GG/	.	.	16G/L	.	16B/L	.	.	.	.	.	.	.
.	.	.	16G/	.	16B/	.	.	.	.	.	.	.
8GG/J	.	.	16G/	.	16B/	.	.	.	.	.	.	.
.	.	.	16G/J	.	16B/J	.	.	.	.	.	.	.
*	*	*	*Xtremolo	*	*Xtremolo	*	*	*	*	*	*	*
=8	=8	=8	=8	=8	=8	=8	=8	=8	=8	=8	=8	=8
!LO:TX:a:t=P:problem:mixed beam	!	!	!LO:TX:a:t=P:problem:mixed beam	!	!LO:TX:a:t=P:problem:mixed beam	!	!	!	!	!	!	!
8C/L	x	.	8c/L	.	8c/L	.	8c\	-o	8r	.	8r	.
!	!	!	!	!LO:DY:a	!	!LO:DY:b	!	!	!	!	!	!
!	!	!	!	!LO:HP:a:i:t=for.	!	!LO:HP:b:i:t=for	!	!	!	!	!	!
16c\L	.	.	16cc\L	f	16cc\L	f	8c\	et	8cc\	Et	8cc\	Et
16d\JJ	.	.	16dd\JJ	.	16dd\JJ	.	.	.	.	.	.	.
8e\L	.	.	8ee\L	.	8ee\L	.	8c\	in	8cc\	in	8cc\	in
8c\	.	.	8cc\	.	8cc\	.	8c\	ter-	8cc\	ter-	8cc\	ter-
8e\	.	.	8ee\	.	8ee\	.	4c\	-ra	4cc\	-ra	4cc\	-ra
8c\J	.	.	8cc\J	.	8cc\J	.	.	.	.	.	.	.
!	!	!	!LO:LB:g=original	!	!LO:LB:g=original	!	!	!	!LO:LB:g=original	!	!	!
=9	=9	=9	=9	=9	=9	=9	=9	=9	=9	=9	=9	=9
8A\L	.	.	8a/L	.	8a/L	.	8A\	pax	8a\	pax	8a\	pax
16A\L	.	.	16a/L	.	16a/L	.	8A\	ho-	8a\	ho-	8a\	ho-
16B\JJ	.	.	16b/JJ	.	16b/JJ	.	.	.	.	.	.	.
8c\L	.	.	8cc/L	.	8cc/L	.	8A\	-mi-	8a\	-mi-	8a\	-mi-
8A\	.	.	8a/	.	8a/	.	8A\	-ni-	8a\	-ni-	8a\	-ni-
8c\	.	.	8cc/	.	8cc/	.	4A/	-bus	4a\	-bus	4a\	-bus
8A\J	.	.	8a/J	.	8a/J	.	.	.	.	.	.	.
!	!	!	!	!	!	!	!LO:LB:g=original	!	!	!	!	!
=10	=10	=10	=10	=10	=10	=10	=10	=10	=10	=10	=10	=10
8F#X\L	.	.	8f#X/L	.	8f#X/L	.	8F#X/	bo-	8f#X\	bo-	8f#X/	bo-
!	!	!	!	!	!	!	!	!LO:SIC:s=-nae	!	!LO:SIC:s=-nae	!	!LO:SIC:s=-nae
16F#\L	.	.	16f#/L	.	16f#/L	.	8F#/	-ne	8f#\	-ne	8f#/	-ne
16G\JJ	.	.	16g/JJ	.	16g/JJ	.	.	.	.	.	.	.
8A\L	.	.	8a/L	.	8a/L	.	8F#/	vo-	8f#\	vo-	8f#/	vo-
8F#\	.	.	8f#/	.	8f#/	.	8F#/	-lun-	8f#\	-lun-	8f#/	-lun-
8A\	.	.	8a/	.	8a/	.	4F#/	-ta-	4f#\	-ta-	4f#/	-ta-
8F#\J	.	.	8f#/J	.	8f#/J	.	.	.	.	.	.	.
=11	=11	=11	=11	=11	=11	=11	=11	=11	=11	=11	=11	=11
8G\L	.	.	4g/	.	4g/	.	4G/	-tis	4g\	-tis	4g/	-tis
8G\	.	.	.	.	.	.	.	.	.	.	.	.
8D\	.	.	4d/ 4b 4gg	.	4d/ 4b 4gg	.	4r	.	4r	.	4r	.
8G\	.	.	.	.	.	.	.	.	.	.	.	.
8BB\	.	.	4d/ 4b 4gg	.	4d/ 4b 4gg	.	4r	.	4r	.	4r	.
8D\J	.	.	.	.	.	.	.	.	.	.	.	.
=12	=12	=12	=12	=12	=12	=12	=12	=12	=12	=12	=12	=12
!	!	!	!	!	!	!	!	!	!LO:TX:a:t=P:problem:w źródle łuk nad jedynką	!	!LO:TX:a:t=P:problem:w źródle łuk nad jedynką	!
!	!	!	!	!	!	!	!LO:TX:a:t=P:problem:pauza wielotaktowa obejmująca 13 taktów	!	!	!	!	!
!	!	!	!	!	!	!	!LO:TX:a:t=13.	!	!LO:TX:a:t=1	!	!LO:TX:a:t=1	!
4GG/	.	.	4d/ 4b 4gg	.	4d/ 4b 4gg	.	2.r	.	2.r	.	2.r	.
4r	.	.	4r	.	8g/L	.	.	.	.	.	.	.
.	.	.	.	.	16a/L	.	.	.	.	.	.	.
.	.	.	.	.	16b/JJ	.	.	.	.	.	.	.
4r	.	.	4r	.	16cc\LL	.	.	.	.	.	.	.
.	.	.	.	.	16dd\	.	.	.	.	.	.	.
.	.	.	.	.	16ee\	.	.	.	.	.	.	.
.	.	.	.	.	16ff#X\JJ	.	.	.	.	.	.	.
!LO:LB:g=original	!	!	!	!	!	!	!	!	!	!	!LO:LB:g=original	!
=13	=13	=13	=13	=13	=13	=13	=13	=13	=13	=13	=13	=13
!	!	!	!	!	!	!LO:DY:b	!	!	!	!	!	!
!	!	!	!	!	!	!LO:HP:b:i:t=p.	!	!	!	!	!	!
4r	.	.	4r	.	8gg\	p	2.r	.	2g\	Lau-	8g/	Lau-
.	.	.	.	.	4bb\	.	.	.	.	.	2b\	-da-
!	!	!LO:DY:b	!	!LO:DY:b	!	!	!	!	!	!	!	!
!	!	!LO:HP:b:i:t=pia	!	!LO:HP:b:i:t=p.	!	!	!	!	!	!	!	!
4G\	X 3_	p	4b/	p	.	.	.	.	.	.	.	.
.	.	.	.	.	4bb\	.	.	.	.	.	.	.
4G\	.	.	4b/	.	.	.	.	.	4b\	-da-	.	.
.	.	.	.	.	8ddd\	.	.	.	.	.	8dd\	.
=14	=14	=14	=14	=14	=14	=14	=14	=14	=14	=14	=14	=14
4r	x	.	4r	.	16ddd\LL	.	2.r	.	8b\L	-mus	8dd\L	-mus
.	.	.	.	.	16ccc\	.	.	.	.	.	.	.
.	.	.	.	.	16bb\	.	.	.	8a\J	.	8cc\J	.
.	.	.	.	.	16ccc\JJ	.	.	.	.	.	.	.
!	!	!	!	!	!LO:SIC:s=8.aa	!	!	!	!	!	!	!
!	!	!	!	!	!LO:N:vis=8	!	!	!	!	!	!	!
4A\	X 4_	.	4cc\	.	8.aa\L	.	.	.	4.f#X\	Te	4.a\	te
.	.	.	.	.	16ff#X\Jk	.	.	.	.	.	.	.
4A\	.	.	4cc\	.	16dd\LL	.	.	.	.	.	.	.
.	.	.	.	.	16ff#X\	.	.	.	.	.	.	.
.	.	.	.	.	16aa\	.	.	.	8a\	.	8cc\	.
.	.	.	.	.	16ccc\JJ	.	.	.	.	.	.	.
=15	=15	=15	=15	=15	=15	=15	=15	=15	=15	=15	=15	=15
4r	x	.	4r	.	16ccc\LL	.	2.r	.	8a\L	Be-	8cc\L	Be-
.	.	.	.	.	16bb\	.	.	.	.	.	.	.
.	.	.	.	.	16aa\	.	.	.	8g\J	.	8b\J	.
.	.	.	.	.	16bb\JJ	.	.	.	.	.	.	.
4G\	X 3_	.	4b\	.	8.gg\L	.	.	.	4.g\	-ne-	4.b\	-ne-
.	.	.	.	.	16dd\Jk	.	.	.	.	.	.	.
4G\	.	.	4b\	.	16b\LL	.	.	.	.	.	.	.
.	.	.	.	.	16dd\	.	.	.	.	.	.	.
.	.	.	.	.	16gg\	.	.	.	8b\	.	8dd\	.
.	.	.	.	.	16bb\JJ	.	.	.	.	.	.	.
!	!	!	!	!	!	!	!	!	!LO:LB:g=original	!	!	!
=16	=16	=16	=16	=16	=16	=16	=16	=16	=16	=16	=16	=16
!	!	!	!	!	!LO:TX:a:t=P:problem:repetycja 2t: takty 16-17	!	!	!	!	!	!	!
4r	x	.	4r	.	16ddd\LL	.	2.r	.	8b\L	-di-	8dd\L	-di-
.	.	.	.	.	16ccc\	.	.	.	.	.	.	.
.	.	.	.	.	16bb\	.	.	.	8a\J	.	8cc\J	.
.	.	.	.	.	16ccc\JJ	.	.	.	.	.	.	.
!	!	!	!	!	!LO:LB:g=original	!	!	!	!	!	!	!
4F#X\	X 3_	.	4a/	.	8.aa\L	.	.	.	4.f#X\	-ci-	4.a\	-ci-
.	.	.	.	.	16ff#X\Jk	.	.	.	.	.	.	.
4F#\	.	.	4a/	.	16dd\LL	.	.	.	.	.	.	.
.	.	.	.	.	16ff#\	.	.	.	.	.	.	.
.	.	.	.	.	16aa\	.	.	.	8a\	.	8cc\	.
.	.	.	.	.	16ccc\JJ	.	.	.	.	.	.	.
=17	=17	=17	=17	=17	=17	=17	=17	=17	=17	=17	=17	=17
4r	x	.	4r	.	16ccc\LL	.	2.r	.	8a\L	-mus	8cc\L	-mus
.	.	.	.	.	(>16bb\	.	.	.	.	.	.	.
.	.	.	.	.	16aa\	.	.	.	8g\J	.	8b\J	.
.	.	.	.	.	16bb\JJ)	.	.	.	.	.	.	.
4G\	.	.	4b/	.	8.gg\L	.	.	.	4.g\	Te	4.b\	Te
.	.	.	.	.	16dd\Jk	.	.	.	.	.	.	.
4G\	.	.	4b/	.	16b\LL	.	.	.	.	.	.	.
.	.	.	.	.	16dd\	.	.	.	.	.	.	.
.	.	.	.	.	16gg\	.	.	.	8b\	.	8dd\	.
.	.	.	.	.	16bb\JJ	.	.	.	.	.	.	.
=18	=18	=18	=18	=18	=18	=18	=18	=18	=18	=18	=18	=18
4r	.	.	4r	.	16ddd\LL	.	2.r	.	8b\L	A-	8dd\L	A-
.	.	.	.	.	16ccc\	.	.	.	.	.	.	.
.	.	.	.	.	16bb\	.	.	.	8a\J	.	8cc\J	.
.	.	.	.	.	16ccc\JJ	.	.	.	.	.	.	.
4A\	.	.	4cc\	.	8.aa\L	.	.	.	4.f#X\	-do-	4.a\	-do-
.	.	.	.	.	16ff#X\Jk	.	.	.	.	.	.	.
4A\	.	.	4cc\	.	16dd\LL	.	.	.	.	.	.	.
.	.	.	.	.	16ff#\	.	.	.	.	.	.	.
.	.	.	.	.	16aa\	.	.	.	8a\	.	8cc\	.
.	.	.	.	.	16ccc\JJ	.	.	.	.	.	.	.
=19	=19	=19	=19	=19	=19	=19	=19	=19	=19	=19	=19	=19
4r	.	.	4r	.	16ccc\LL	.	2.r	.	8a\L	-ra-	8cc\L	-ra-
.	.	.	.	.	(>16bb\	.	.	.	.	.	.	.
.	.	.	.	.	16aa\	.	.	.	8g\J	.	8b\J	.
.	.	.	.	.	16bb\JJ)	.	.	.	.	.	.	.
!	!	!	!	!	!	!	!	!	!	!	!LO:LB:g=original	!
4G\	.	.	4b/	.	8.gg\L	.	.	.	4.g\	-mus	4.b\	-mus
.	.	.	.	.	16dd\Jk	.	.	.	.	.	.	.
4G\	.	.	4b/	.	16b\LL	.	.	.	.	.	.	.
.	.	.	.	.	16dd\	.	.	.	.	.	.	.
.	.	.	.	.	16gg\	.	.	.	8b\	Te	8dd\	te
.	.	.	.	.	16bb\JJ	.	.	.	.	.	.	.
!	!	!	!LO:LB:g=original	!	!	!	!	!	!	!	!	!
=20	=20	=20	=20	=20	=20	=20	=20	=20	=20	=20	=20	=20
4B\	X 3	.	8bb\L	.	8ddd\L	.	2.r	.	4b\	glo-	4dd\	glo-
.	.	.	8bb\	.	8ddd\	.	.	.	.	.	.	.
8c\L	X 6_	.	8aa\	.	8ccc\	.	.	.	4a\	-ri-	4cc\	-ri-
8c\J	.	.	8aa\	.	8ccc\	.	.	.	.	.	.	.
8c#X\L	6_ 5_	.	8gg\	.	8bb\	.	.	.	4g\	-fi-	4b\	-fi-
8c#\J	.	.	8gg\J	.	8bb\J	.	.	.	.	.	.	.
=21	=21	=21	=21	=21	=21	=21	=21	=21	=21	=21	=21	=21
4d\	6 4	.	8.gg\L	.	8.bb\L	.	2.r	.	8.g\	-ca-	8.b\	-ca-
.	.	.	32ff#X\LL	.	32aa\LL	.	.	.	32f#X\LLL	-mus	32a\LLL	-mus
.	.	.	32gg\JJJ	.	32bb\JJJ	.	.	.	32g\JJJ	.	32b\JJJ	.
8D/L	5 #	.	4ff#\	.	4aa\	.	.	.	4f#\	Te	4a\	te
8C'>/	.	.	.	.	.	.	.	.	.	.	.	.
8BB'>/	.	.	4r	.	4r	.	.	.	4r	.	4r	.
8AA'>/J	.	.	.	.	.	.	.	.	.	.	.	.
!	!	!	!	!	!	!	!	!	!LO:LB:g=original	!	!	!
=22	=22	=22	=22	=22	=22	=22	=22	=22	=22	=22	=22	=22
!LO:TX:a:t=P:problem:mixed beam	!	!	!	!	!	!	!	!	!LO:TX:a:t=3.	!	!LO:TX:a:t=3.	!
!	!	!	!	!LO:DY:a	!LO:TX:a:t=|:problem	!	!	!	!LO:N:vis=0	!	!LO:N:vis=0	!
!	!	!	!	!LO:HP:a:i:t=for.	!	!	!	!	!	!	!	!
8GG/L	.	.	8g/L	f	16gg\LL	.	2.r	.	1.r	.	1.r	.
!	!	!	!	!	!LO:TX:a:t=|:problem	!	!	!	!	!	!	!
!	!	!	!	!	!	!LO:DY:b	!	!	!	!	!	!
!	!	!	!	!	!	!LO:HP:b:i:t=for.	!	!	!	!	!	!
.	.	.	.	.	16aa\	f	.	.	.	.	.	.
!	!	!LO:DY:rj	!	!	!	!	!	!	!	!	!	!
!	!	!LO:DY:b	!	!	!LO:TX:a:t=|:problem	!	!	!	!	!	!	!
!	!	!LO:HP:b:i:t=for.	!	!	!	!	!	!	!	!	!	!
16G'>\>L	.	f	8f#X/	.	16bb\	.	.	.	.	.	.	.
!	!	!	!	!	!LO:TX:a:t=|:problem	!	!	!	!	!	!	!
16F#X'>\JJ	.	.	.	.	16aa\JJ	.	.	.	.	.	.	.
!	!	!	!	!	!LO:TX:a:t=|:problem	!	!	!	!	!	!	!
8G'>\L	.	.	8g/	.	16gg\LL	.	.	.	.	.	.	.
!	!	!	!	!	!LO:TX:a:t=|:problem	!	!	!	!	!	!	!
.	.	.	.	.	16ff#X\	.	.	.	.	.	.	.
!	!	!	!	!	!LO:TX:a:t=|:problem	!	!	!	!	!	!	!
8D'>\	.	.	8d/	.	16ee\	.	.	.	.	.	.	.
!	!	!	!	!	!LO:TX:a:t=|:problem	!	!	!	!	!	!	!
.	.	.	.	.	16dd\JJ	.	.	.	.	.	.	.
!	!	!	!	!	!LO:TX:a:t=|:problem	!	!	!	!	!	!	!
8E'>\	.	.	8e/	.	16ee\LL	.	.	.	.	.	.	.
!	!	!	!	!	!LO:TX:a:t=|:problem	!	!	!	!	!	!	!
.	.	.	.	.	16dd\	.	.	.	.	.	.	.
!	!	!	!	!	!LO:TX:a:t=|:problem	!	!	!	!	!	!	!
8BB'>\J	.	.	8B/J	.	16cc\	.	.	.	.	.	.	.
!	!	!	!	!	!LO:TX:a:t=|:problem	!	!	!	!	!	!	!
.	.	.	.	.	16b\JJ	.	.	.	.	.	.	.
=23	=23	=23	=23	=23	=23	=23	=23	=23	=23	=23	=23	=23
8C'</L	.	.	8c/L	.	8cc\L	.	2.r	.	.	.	.	.
8BB'</	.	.	8B/	.	16ee\L	.	.	.	.	.	.	.
.	.	.	.	.	16dd\JJ	.	.	.	.	.	.	.
8C'</	.	.	8c/	.	8cc\L	.	.	.	.	.	.	.
8AA'</	.	.	8A/	.	8a\J	.	.	.	.	.	.	.
!	!	!	!	!	!LO:TX:a:t=P:problem:mixed beam	!	!	!	!	!	!	!
8D'</	.	.	8d/	.	8dd\L	.	.	.	.	.	.	.
8DD'</J	.	.	8d/J	.	8d/J	.	.	.	.	.	.	.
!LO:LB:g=original	!	!	!	!	!	!	!	!	!	!	!	!
=24	=24	=24	=24	=24	=24	=24	=24	=24	=24	=24	=24	=24
4GG/	.	.	8B/L	.	(<8g/L	.	2.r	.	2.r	.	2.r	.
.	.	.	8B/	.	8d/)	.	.	.	.	.	.	.
!	!	!	!	!	!LO:TX:b:t=|:problem	!	!	!	!	!	!	!
4r	.	.	8B/	.	8d/	.	.	.	.	.	.	.
!	!	!	!	!	!LO:TX:b:t=|:problem	!	!	!	!	!	!	!
.	.	.	8A/J	.	8c/J	.	.	.	.	.	.	.
4r	.	.	4G/	.	4B/	.	.	.	.	.	.	.
!	!	!	!	!	!LO:LB:g=original	!	!	!	!	!	!	!
=25	=25	=25	=25	=25	=25	=25	=25	=25	=25	=25	=25	=25
!	!	!	!LO:TX:b:t=|:problem	!	!	!	!	!	!	!	!	!
8G\L	5_ 3_	.	8g/L	.	2.dd\	.	2.B\	Gra-	2.g\	Gra-	2.dd\	Gra-
!	!	!	!LO:TX:b:t=|:problem	!	!	!	!	!	!	!	!	!
8A\	.	.	8a/	.	.	.	.	.	.	.	.	.
!	!	!	!LO:TX:b:t=|:problem	!	!	!	!	!	!	!	!	!
8B\	.	.	8b/	.	.	.	.	.	.	.	.	.
!	!	!	!LO:TX:b:t=|:problem	!	!	!	!	!	!	!	!	!
8c\	.	.	8cc/	.	.	.	.	.	.	.	.	.
!	!	!	!LO:TX:b:t=|:problem	!	!	!	!	!	!	!	!	!
8d\	.	.	8dd/	.	.	.	.	.	.	.	.	.
!	!	!	!LO:TX:b:t=|:problem	!	!	!	!	!	!	!	!	!
8B\J	.	.	8b/J	.	.	.	.	.	.	.	.	.
=26	=26	=26	=26	=26	=26	=26	=26	=26	=26	=26	=26	=26
!	!	!	!LO:TX:b:t=|:problem	!	!	!	!	!	!	!	!	!
8G#X\L	X 5_	.	8g#X/L	.	2dd\	.	2B\	-ti-	2g#X\	-ti-	2dd\	-ti-
!	!	!	!LO:TX:b:t=|:problem	!	!	!	!	!	!	!	!	!
8A\	.	.	8a/	.	.	.	.	.	.	.	.	.
!	!	!	!LO:TX:b:t=|:problem	!	!	!	!	!	!	!	!	!
8B\	.	.	8b/	.	.	.	.	.	.	.	.	.
!	!	!	!LO:TX:b:t=|:problem	!	!	!	!	!	!	!	!	!
8c\	.	.	8cc/	.	.	.	.	.	.	.	.	.
!	!	!	!LO:TX:b:t=|:problem	!	!	!	!	!	!	!	!	!
8d\	.	.	8dd/	.	4dd\	.	4B\	-as	4g#\	-as	4dd\	-as
!	!	!	!LO:TX:b:t=|:problem	!	!	!	!	!	!	!	!	!
8B\J	x	.	8b/J	.	.	.	.	.	.	.	.	.
=27	=27	=27	=27	=27	=27	=27	=27	=27	=27	=27	=27	=27
4c\	.	.	4a/	.	4cc\	.	4c\	a-	4a\	a-	4cc\	a-
4d\	.	.	4b/	.	4dd\	.	4d\	-gi-	4b\	-gi-	4dd\	-gi-
!	!LO:SIC:t=podwójna linia	!	!	!	!	!	!LO:SIC:s=4B	!	!	!	!	!
8e\L	X #_	.	4g#X/	.	4b\	.	4c\	-mus	4g#X\	-mus	4b\	-mus
8E\J	.	.	.	.	.	.	.	.	.	.	.	.
=28	=28	=28	=28	=28	=28	=28	=28	=28	=28	=28	=28	=28
4A\	x	.	(<8a/L	.	(>8a\L	.	4c\	ti-	4a\	Ti-	4a\	Ti-
.	.	.	8cc/	.	8ee\	.	.	.	.	.	.	.
4r	.	.	8b/	.	8dd\	.	4c\	-bi	4a\	-bi	4a\	-bi
.	.	.	8a/J)	.	8cc\	.	.	.	.	.	.	.
!	!	!	!LO:LB:g=original	!	!	!	!	!	!	!	!	!
4r	.	.	8g#X/L	.	8b\	.	4r	.	4r	.	4r	.
.	.	.	8a/J	.	8cc\J)	.	.	.	.	.	.	.
=29	=29	=29	=29	=29	=29	=29	=29	=29	=29	=29	=29	=29
!	!	!	!LO:TX:b:t=|:problem	!	!	!	!	!	!	!	!	!
8D\L	X 4	.	8d/L	.	2.cc\	.	2A/	pro-	2f#X\	pro-	2cc\	pro-
.	X 7_	.	.	.	.	.	.	.	.	.	.	.
!	!	!	!LO:TX:b:t=|:problem	!	!	!	!	!	!	!	!	!
8E\	.	.	8e/	.	.	.	.	.	.	.	.	.
!	!	!	!LO:TX:b:t=|:problem	!	!	!	!	!	!	!	!	!
8F#X\	.	.	8f#X/	.	.	.	.	.	.	.	.	.
!	!	!	!LO:TX:b:t=|:problem	!	!	!	!	!	!	!	!	!
8G\	.	.	8g/	.	.	.	.	.	.	.	.	.
!	!	!	!LO:TX:b:t=|:problem	!	!	!	!	!	!	!	!	!
8A\	.	.	8a/	.	.	.	4A/	-pter	4f#\	-pter.	4cc\	-pter
!	!	!	!LO:TX:b:t=|:problem	!	!	!	!	!	!	!	!	!
8F#\J	x	.	8f#X/J	.	.	.	.	.	.	.	.	.
=30	=30	=30	=30	=30	=30	=30	=30	=30	=30	=30	=30	=30
!	!	!	!LO:TX:b:t=|:problem	!	!	!	!	!	!	!	!	!
8F#X\L	X 5_	.	8f#X/L	.	2cc\	.	2A/	Ma-	2d\	ma-	2cc\	ma-
!	!	!	!LO:TX:b:t=|:problem	!	!	!	!	!	!	!	!	!
8G\	.	.	8g/	.	.	.	.	.	.	.	.	.
!	!	!	!LO:TX:b:t=|:problem	!	!	!	!	!	!	!	!	!
8A\	.	.	8a/	.	.	.	.	.	.	.	.	.
!	!	!	!LO:TX:b:t=|:problem	!	!	!	!	!	!	!	!	!
8B\	.	.	8b/	.	.	.	.	.	.	.	.	.
!	!	!	!LO:TX:b:t=|:problem	!	!	!	!	!	!	!	!	!
8c\	.	.	8cc/	.	4cc\	.	4A/	-gnam	4d\	-gnam	4cc\	-gnam.
!	!	!	!LO:TX:b:t=|:problem	!	!	!	!	!	!	!	!	!
8A\J	x	.	8a/J	.	.	.	.	.	.	.	.	.
!	!	!	!	!	!	!	!LO:LB:g=original	!	!	!	!LO:LB:g=original	!
=31	=31	=31	=31	=31	=31	=31	=31	=31	=31	=31	=31	=31
4B\	.	.	8g/L	.	8b\L	.	8d\	glo-	8g\	glo-	8b\	glo-
.	.	.	8b/J	.	8dd\J	.	8d\	-ri-	8b\	-ri-	8dd\	-ri-
4c\	.	.	4a/	.	4cc\	.	4d\	-am	4a\	-am	4cc\	-am
4d\	.	.	4c/	.	4a/	.	4d\	tu-	4d\	tu-	4a\	tu-
=32	=32	=32	=32	=32	=32	=32	=32	=32	=32	=32	=32	=32
!	!	!	!LO:TX:b:t=|:problem	!	!LO:TX:b:t=|:problem	!	!	!	!	!	!	!
4G\	.	.	8B/L	.	8g/L	.	4d\	-am	4B/	-am	4g\	-am
!	!	!	!LO:TX:b:t=|:problem	!	!LO:TX:b:t=|:problem	!	!	!	!	!	!	!
.	.	.	8g/	.	8b/	.	.	.	.	.	.	.
!	!	!	!LO:TX:b:t=|:problem	!	!LO:TX:b:t=|:problem	!	!	!	!	!	!	!
4r	.	.	8f#X/	.	8a/	.	4r	.	4r	.	4r	.
!	!	!	!LO:TX:b:t=|:problem	!	!LO:TX:b:t=|:problem	!	!	!	!	!	!	!
.	.	.	8e/	.	8g/	.	.	.	.	.	.	.
!	!	!	!LO:TX:b:t=|:problem	!	!LO:TX:b:t=|:problem	!	!	!	!	!	!	!
4r	.	.	8d#X/	.	8f#X/	.	4r	.	4r	.	4r	.
!	!	!	!LO:TX:b:t=|:problem	!	!LO:TX:b:t=|:problem	!	!	!	!	!	!	!
.	.	.	8e/J	.	8e/J	.	.	.	.	.	.	.
!	!	!	!LO:TX:b:t=|:problem	!	!	!	!	!	!LO:LB:g=original	!	!	!
=33	=33	=33	=33	=33	=33	=33	=33	=33	=33	=33	=33	=33
!	!	!	!	!	!	!	!	!	!LO:TX:a:i:t=Solo.	!	!LO:TX:a:t=2	!
!	!	!	!	!	!	!	!	!	!	!	!LO:N:vis=0	!
4G\	X 3	.	4g/	.	4b/	.	4B\	Do-	4g\	Do-	1.r	.
4A\	8 6	.	4f#X/	.	4a/	.	4A\	-mi-	4f#X\	-mi-	.	.
4A#X\	7 5	.	4e/	.	4g/	.	4G/	-ne	4e\	-ne	.	.
!LO:LB:g=original	!	!	!	!	!	!	!	!	!	!	!	!
=34	=34	=34	=34	=34	=34	=34	=34	=34	=34	=34	=34	=34
4B\	6 4	.	4e/	.	4g/	.	4G/	De-	4e\	De-	.	.
4BB/	5 #	.	4B/	.	4f#X/	.	4F#X/	-us	4d#X\	-us	.	.
4r	.	.	4r	.	(<8a/L	.	4r	.	4r	.	.	.
.	.	.	.	.	8b/J)	.	.	.	.	.	.	.
=35	=35	=35	=35	=35	=35	=35	=35	=35	=35	=35	=35	=35
!LO:TX:a:t=P:problem:repetycja 2t: takty 35-36.	!	!	!LO:TX:a:t=P:problem:repetycja 2t: takty 35-36	!	!LO:TX:a:t=P:problem:mixed beam	!	!	!	!	!	!	!
!	!	!	!	!	!LO:TX:a:t=|:problem	!	!	!	!	!	!	!
8r	.	.	8r	.	8cc\L	.	2A\	Rex	2f#X\	Rex	2cc\	Rex
!	!	!	!	!	!LO:TX:b:t=|:problem	!	!	!	!	!	!	!
8BB/L	X 9_	.	8B/L	.	8B/	.	.	.	.	.	.	.
!	!	!	!	!	!LO:TX:b:t=|:problem	!	!	!	!	!	!	!
8C/	.	.	8c/	.	8c/	.	.	.	.	.	.	.
!	!	!	!	!	!LO:TX:b:t=|:problem	!	!	!	!	!	!	!
8C#X/	.	.	8c#X/	.	8c#X/	.	.	.	.	.	.	.
!	!	!	!	!	!LO:TX:b:t=|:problem	!	!	!LO:SIC:s=Coe-	!	!LO:SIC:s=Coe-	!	!LO:SIC:s=Coe-
8D/	.	.	8d/	.	8d/	.	4A\	Ca-	4f#\	Ca-	4cc\	Ca-
!	!	!	!	!	!LO:TX:b:t=|:problem	!	!	!	!	!	!	!
8D#X/J	x	.	8d#X/J	.	8d#X/J	.	.	.	.	.	.	.
=36	=36	=36	=36	=36	=36	=36	=36	=36	=36	=36	=36	=36
!	!	!	!	!	!	!	!	!LO:SIC:s=-le-	!	!	!	!
!	!	!	!	!	!LO:TX:b:t=|:problem	!	!	!	!	!	!	!
4E\	X 5	.	8e/L	.	8e/L	.	2B\	-les-	2g\	-le-	2b\	-le-
!	!	!	!	!	!LO:TX:b:t=|:problem	!	!	!	!	!	!	!
.	.	.	8g/	.	8b/J	.	.	.	.	.	.	.
!	!	!	!	!	!LO:TX:b:t=|:problem	!	!	!	!	!	!	!
4r	.	.	8f#X/	.	8a/L	.	.	.	.	.	.	.
!	!	!	!	!	!LO:TX:b:t=|:problem	!	!	!	!	!	!	!
.	.	.	8e/	.	8g/J	.	.	.	.	.	.	.
!	!	!	!	!	!LO:LB:g=original	!	!	!	!	!	!	!
4r	.	.	8A/	.	8f#X/L	.	4B\	-stis	4g\	-stis	4b\	-stis
.	.	.	8G/J	.	8e/J	.	.	.	.	.	.	.
!	!	!	!LO:LB:g=original	!	!	!	!	!	!	!	!	!
=37	=37	=37	=37	=37	=37	=37	=37	=37	=37	=37	=37	=37
8r	.	.	8r	.	8r	.	2f#X\	Pa-	2d#X\	Pa-	2cc\	Pa-
!	!	!	!	!	!LO:TX:b:t=|:problem	!	!	!	!	!	!	!
8BB/L	X 9_	.	8B/L	.	8B/L	.	.	.	.	.	.	.
!	!	!	!	!	!LO:TX:b:t=|:problem	!	!	!	!	!	!	!
8C/	.	.	8c/	.	8c/	.	.	.	.	.	.	.
!	!	!	!	!	!LO:TX:b:t=|:problem	!	!	!	!	!	!	!
8C#X/	.	.	8c#X/	.	8c#X/	.	.	.	.	.	.	.
!	!	!	!	!	!LO:TX:b:t=|:problem	!	!	!	!	!	!	!
8D/	.	.	8d/	.	8d/	.	4f#\	-ter	4d#\	-ter	4cc\	-ter
!	!	!	!	!	!LO:TX:b:t=|:problem	!	!	!	!	!	!	!
8D#X/J	x	.	8d#X/J	.	8d#X/J	.	.	.	.	.	.	.
=38	=38	=38	=38	=38	=38	=38	=38	=38	=38	=38	=38	=38
!	!	!	!	!	!LO:TX:b:t=|:problem	!	!	!	!	!	!	!
4E\	X 5	.	8e/L	.	8e/L	.	8g\	o-	8e\	o-	8b\	o-
!	!	!	!	!	!LO:TX:b:t=|:problem	!	!	!	!	!	!	!
.	.	.	8g/	.	8b/	.	8g\	-mni-	8e\	-mni-	8b\	-mni-
!	!	!	!	!	!	!	!LO:LB:g=original	!	!	!	!	!
!	!	!	!	!	!	!	!LO:SIC:t=lub 4g	!	!	!	!	!
!	!	!	!	!	!LO:TX:b:t=|:problem	!	!	!	!	!	!	!
4r	.	.	8f#X/	.	8a/	.	4a\	-po-	4e\	-po-	4b\	-po-
!	!	!	!	!	!LO:TX:b:t=|:problem	!	!	!	!	!	!	!
.	.	.	8e/	.	8g/	.	.	.	.	.	.	.
!	!	!	!	!	!LO:TX:b:t=|:problem	!	!	!	!	!	!	!
4r	.	.	8A/	.	8f#X/	.	4g\	-tens.	4e\	-tens	4b\	-tens
!	!	!	!	!	!LO:TX:b:t=|:problem	!	!	!	!	!	!	!
.	.	.	8G/J	.	8e/J	.	.	.	.	.	.	.
=39	=39	=39	=39	=39	=39	=39	=39	=39	=39	=39	=39	=39
8r	.	.	8r	.	8r	.	2.A/	Do-	2.f#X\	Do-	2.cc\	Do-
16c\LL	.	.	(>16cc\LL	.	(>16cc\LL	.	.	.	.	.	.	.
16B\JJ	.	.	16b\JJ)	.	16b\JJ)	.	.	.	.	.	.	.
8c\L	.	.	(>16cc\LL	.	(<16cc/LL	.	.	.	.	.	.	.
.	.	.	16b\)	.	16b/)	.	.	.	.	.	.	.
!	!	!	!LO:TX:a:t=|:problem	!	!LO:TX:b:t=|:problem	!	!	!	!	!	!	!
8A\J	.	.	16a\	.	16a/	.	.	.	.	.	.	.
!	!	!	!LO:TX:a:t=|:problem	!	!LO:TX:b:t=|:problem	!	!	!	!	!	!	!
.	.	.	16g\JJ	.	16g/JJ	.	.	.	.	.	.	.
4F#X\	.	.	4f#X/	.	4f#X/	.	.	.	.	.	.	.
!	!	!	!	!	!	!	!	!	!LO:PB:g=original	!	!	!
=40	=40	=40	=40	=40	=40	=40	=40	=40	=40	=40	=40	=40
8r	.	.	8r	.	8r	.	2G/	-mi-	2g\	-mi-	2b\	-mi-
16B\LL	.	.	(<16b/LL	.	(<16b/LL	.	.	.	.	.	.	.
16A\JJ	.	.	16a/JJ)	.	16a/JJ)	.	.	.	.	.	.	.
8B\L	.	.	(<16b/LL	.	(<16b/LL	.	.	.	.	.	.	.
.	.	.	16a/)	.	16a/)	.	.	.	.	.	.	.
!	!	!	!LO:TX:b:t=|:problem	!	!LO:TX:b:t=|:problem	!	!	!	!	!	!	!
8G\J	.	.	16g/	.	16g/	.	.	.	.	.	.	.
!	!	!	!LO:TX:b:t=|:problem	!	!LO:TX:b:t=|:problem	!	!	!	!	!	!	!
.	.	.	16f#X/JJ	.	16f#X/JJ	.	.	.	.	.	.	.
4E\	.	.	4e/	.	4e/	.	4G/	-ne	4g\	-ne	4b\	-ne
=41	=41	=41	=41	=41	=41	=41	=41	=41	=41	=41	=41	=41
8r	.	.	8r	.	8r	.	4.F#X/	Fi-	4.d#X\	Fi-	4.a\	Fi-
16A\LL	.	.	(<16a/LL	.	(<16a/LL	.	.	.	.	.	.	.
16G\JJ	.	.	16g/JJ)	.	16g/JJ)	.	.	.	.	.	.	.
8A\L	.	.	(<16a/LL	.	(<16a/LL	.	.	.	.	.	.	.
.	.	.	16g/)	.	16g/	.	.	.	.	.	.	.
!	!	!	!LO:TX:b:t=|:problem	!	!LO:TX:b:t=|:problem	!	!	!	!	!	!	!
8F#X\J	.	.	16f#X/	.	16f#X/)	.	8F#/	-li	8d#\	-li	8a\	-li
!	!	!	!LO:TX:b:t=|:problem	!	!LO:TX:b:t=|:problem	!	!	!	!	!	!	!
.	.	.	16e/JJ	.	16e/JJ	.	.	.	.	.	.	.
4D#X\	.	.	4d#X/	.	4d#X/	.	8F#/	u-	8d#\	u-	8a\L	u-
.	.	.	.	.	.	.	8F#/	-ni-	8d#\	-ni-	8a\J	-ni-
!	!	!	!	!	!	!	!	!	!	!	!LO:LB:g=original	!
=42	=42	=42	=42	=42	=42	=42	=42	=42	=42	=42	=42	=42
*tremolo	*	*	*	*	*	*	*	*	*	*	*	*
*2\right	*	*	*	*	*	*	*	*	*	*	*	*
8E\L	X n	.	4.e/	.	4.e/	.	4.G/	-ge-	4.e\	-ge-	4.g/	-ge-
8E\	.	.	.	.	.	.	.	.	.	.	.	.
8E\	.	.	.	.	.	.	.	.	.	.	.	.
8E\	.	.	8e/	.	8g/	.	8G/	-ni-	8e\	-ni-	8g/	-ni-
8E\	.	.	4g/	.	4b/	.	4G/	-te	4e\	-te	4g/	-te
8E\J	.	.	.	.	.	.	.	.	.	.	.	.
*Xtremolo	*	*	*	*	*	*	*	*	*	*	*	*
!	!	!	!	!	!LO:PB:g=original	!	!	!	!	!	!	!
=43	=43	=43	=43	=43	=43	=43	=43	=43	=43	=43	=43	=43
4A\	X 6|	.	4f#X/	.	4a/	.	4A/	Je-	4f#X\	Je-	4a/	Je-
4B\	6 4	.	4e/	.	4g/	.	4B/	-su	4e\	-su	4g/	-su
4BB/	5 #	.	4d#X/	.	4f#X/	.	4B/	chri-	4d#X\	Chri-	4f#X/	chri-
=44	=44	=44	=44	=44	=44	=44	=44	=44	=44	=44	=44	=44
!	!	!	!LO:TX:a:t=P:problem:mixed beam	!	!LO:TX:a:t=P:problem:mixed beam	!	!	!	!	!	!	!
4E\	.	.	8e/L	.	8e/L	.	4B\	-ste	4e\	-ste.	4e/	-ste
.	.	.	8gg\	.	8bb\	.	.	.	.	.	.	.
4r	.	.	8ff#X\	.	8aa\	.	4r	.	4r	.	4r	.
.	.	.	8ee\	.	8gg\	.	.	.	.	.	.	.
4r	.	.	8a\	.	8ff#X\	.	4r	.	4r	.	4r	.
.	.	.	8g\J	.	8gg\J	.	.	.	.	.	.	.
!LO:LB:g=original	!	!	!	!	!	!	!	!	!	!	!	!
=45	=45	=45	=45	=45	=45	=45	=45	=45	=45	=45	=45	=45
8r	.	.	8r	.	8r	.	4.A/	Do-	4.f#X\	Do-	4.cc\	Do-
16c\LL	.	.	(>16cc\LL	.	(>16ccc\LL	.	.	.	.	.	.	.
16B\JJ	.	.	16b\JJ)	.	16bb\JJ)	.	.	.	.	.	.	.
8c\L	.	.	16cc\LL	.	(>16ccc\LL	.	.	.	.	.	.	.
.	.	.	(>16b\	.	16bb\)	.	.	.	.	.	.	.
!	!	!	!LO:TX:a:t=|:problem	!	!LO:TX:a:t=|:problem	!	!	!	!	!	!	!
8A\J	.	.	16a\	.	16aa\	.	8A/	-mi-	8f#\	-mi-	8cc\	-mi-
!	!	!	!LO:TX:a:t=|:problem	!	!LO:TX:a:t=|:problem	!	!	!	!	!	!	!
.	.	.	16g\JJ)	.	16gg\JJ	.	.	.	.	.	.	.
4F#X\	.	.	4f#X/	.	4ff#X\	.	4A/	-ne	4f#\	-ne	4cc\	-ne
!	!	!	!LO:PB:g=original	!	!	!	!LO:LB:g=original	!	!	!	!	!
=46	=46	=46	=46	=46	=46	=46	=46	=46	=46	=46	=46	=46
8r	.	.	8r	.	8r	.	2G/	De-	2g\	De-	2b\	De-
16B\LL	.	.	(<16b/LL	.	(>16bb\LL	.	.	.	.	.	.	.
16A\JJ	.	.	16a/JJ)	.	16aa\JJ)	.	.	.	.	.	.	.
8B\L	.	.	16b/LL	.	(>16bb\LL	.	.	.	.	.	.	.
.	.	.	(<16a/	.	16aa\)	.	.	.	.	.	.	.
!	!	!	!LO:TX:b:t=|:problem	!	!LO:TX:a:t=|:problem	!	!	!	!	!	!	!
8G\J	.	.	16g/)	.	16gg\	.	.	.	.	.	.	.
!	!	!	!LO:TX:b:t=|:problem	!	!LO:TX:a:t=|:problem	!	!	!	!	!	!	!
.	.	.	16f#X/JJ	.	16ff#X\JJ	.	.	.	.	.	.	.
4E\	.	.	4e/	.	4ee\	.	4G/	-us	4g\	-us	4b\	-us.
=47	=47	=47	=47	=47	=47	=47	=47	=47	=47	=47	=47	=47
8r	.	.	8r	.	8r	.	2F#X/	A-	2d#X\	A-	2a\	A-
16A\LL	.	.	(<16a/LL	.	(>16aa\LL	.	.	.	.	.	.	.
16G\JJ	.	.	16g/JJ)	.	16gg\JJ)	.	.	.	.	.	.	.
8A\L	.	.	16a/LL	.	(>16aa\LL	.	.	.	.	.	.	.
.	.	.	16g/	.	16gg\)	.	.	.	.	.	.	.
!	!	!	!LO:SIC:s=16f#	!	!	!	!	!	!	!	!	!
!	!	!	!	!	!LO:TX:a:t=|:problem	!	!	!	!	!	!	!
8F#X\	.	.	16f/	.	16ff#X\	.	.	.	.	.	.	.
!	!	!	!LO:SIC:s=16e	!	!	!	!	!	!	!	!	!
!	!	!	!	!	!LO:TX:a:t=|:problem	!	!	!	!	!	!	!
.	.	.	16e#X/JJ	.	16ee\JJ	.	.	.	.	.	.	.
8D#X\	.	.	4d#X/	.	4dd#X\	.	4F#/	-gnus	8f#X\L	-gnus	8cc\L	-gnus
8F#\J	.	.	.	.	.	.	.	.	8d#X\J	.	8a\J	.
!	!	!	!	!	!	!	!	!	!LO:LB:g=original	!	!	!
=48	=48	=48	=48	=48	=48	=48	=48	=48	=48	=48	=48	=48
4G\	X 6	.	8e/L	.	8ee\L	.	2G/	De-	2e\	De-	2g/	De-
.	.	.	8e/J	.	8ee\	.	.	.	.	.	.	.
*	*	*	*tremolo	*	*	*	*	*	*	*	*	*
8r	.	.	8ee\L	.	8gg\	.	.	.	.	.	.	.
16G\LL	.	.	8ee\	.	8gg\	.	.	.	.	.	.	.
16F#X\JJ	.	.	.	.	.	.	.	.	.	.	.	.
8G\L	.	.	8ee\	.	8bb\	.	4G/	-i	4e\	-i	4g/	-i
8E\J	.	.	8ee\J	.	8bb\J	.	.	.	.	.	.	.
*	*	*	*Xtremolo	*	*	*	*	*	*	*	*	*
=49	=49	=49	=49	=49	=49	=49	=49	=49	=49	=49	=49	=49
4A\	X 6|	.	4ff#X\	.	4aa\	.	4A\	Fi-	4f#X\	Fi-	4a/	Fi-
4B\	6 4	.	4ee\	.	4gg\	.	4B\	-li-	4e\	-li-	4g/	-li-
4BB/	5 #	.	4dd#X\	.	4ff#X\	.	8B\	-us	8d#X\	-us	8f#X/	-us
.	.	.	.	.	.	.	8B\	Pa-	8d#\	Pa-	8f#/	Pa-
=50	=50	=50	=50	=50	=50	=50	=50	=50	=50	=50	=50	=50
4E\	.	.	4ee\	.	4ee\	.	4B\	-tris	4e\	-tris	4e/	-tris
4Fn\	.	.	8fn/L	.	8ffn\L	.	4r	.	4r	.	4r	.
.	.	.	8f/	.	8ff\J	.	.	.	.	.	.	.
!	!	!	!	!	!LO:LB:g=original	!	!	!	!	!	!	!
*	*	*	*	*	*tremolo	*	*	*	*	*	*	*
8F#X\L	.	.	8f#X/	.	16ff#X\L	.	4r	.	4r	.	4r	.
.	.	.	.	.	16ff#X\	.	.	.	.	.	.	.
8F#\J	.	.	8f#/J	.	16ff#X\	.	.	.	.	.	.	.
.	.	.	.	.	16ff#X\J	.	.	.	.	.	.	.
*	*	*	*	*	*Xtremolo	*	*	*	*	*	*	*
!	!	!	!	!	!	!	!	!	!	!	!LO:LB:g=original	!
=51	=51	=51	=51	=51	=51	=51	=51	=51	=51	=51	=51	=51
*tremolo	*	*	*tremolo	*	*	*	*	*	*	*	*	*
!LO:TX:a:i:t=Tutti	!	!	!LO:TX:a:i:t=Tutti	!	!LO:TX:a:t=P:problem:mixed beam	!	!	!	!	!	!	!
8G\L	X 5	.	16g/L	.	16gg\LL	.	2.B\	Qui	2.g\	Qui	2.dd\	Qui
.	.	.	16g/	.	16g/	.	.	.	.	.	.	.
8G\	.	.	16g/	.	16g/	.	.	.	.	.	.	.
.	.	.	16g/	.	16g/JJ	.	.	.	.	.	.	.
*	*	*	*	*	*tremolo	*	*	*	*	*	*	*
8G\	.	.	16g/	.	16g/L	.	.	.	.	.	.	.
.	.	.	16g/	.	16g/	.	.	.	.	.	.	.
8G\	.	.	16g/	.	16g/	.	.	.	.	.	.	.
.	.	.	16g/	.	16g/J	.	.	.	.	.	.	.
8G\	.	.	16g/	.	16g/L	.	.	.	.	.	.	.
.	.	.	16g/	.	16g/	.	.	.	.	.	.	.
8G\J	.	.	16g/	.	16g/	.	.	.	.	.	.	.
.	.	.	16g/J	.	16g/J	.	.	.	.	.	.	.
=52	=52	=52	=52	=52	=52	=52	=52	=52	=52	=52	=52	=52
8G#X\L	X 5	.	16a-X/L	.	16a-X/L	.	4B\	tol-	4g#X\	tol-	4dd\	tol-
.	.	.	16a-X/	.	16a-X/	.	.	.	.	.	.	.
8G#X\	.	.	16a-X/	.	16a-X/	.	.	.	.	.	.	.
.	.	.	16a-X/	.	16a-X/	.	.	.	.	.	.	.
8G#X\	.	.	16a-X/	.	16a-X/	.	2B\	-lis	2g#\	-lis	2dd\	-lis
.	.	.	16a-X/	.	16a-X/	.	.	.	.	.	.	.
8G#X\	.	.	16a-X/	.	16a-X/	.	.	.	.	.	.	.
.	.	.	16a-X/	.	16a-X/	.	.	.	.	.	.	.
8G#X\	.	.	16a-X/	.	16a-X/	.	.	.	.	.	.	.
.	.	.	16a-X/	.	16a-X/	.	.	.	.	.	.	.
8G#X\J	.	.	16a-X/	.	16a-X/	.	.	.	.	.	.	.
.	.	.	16a-X/J	.	16a-X/J	.	.	.	.	.	.	.
=53	=53	=53	=53	=53	=53	=53	=53	=53	=53	=53	=53	=53
8A\L	X n	.	16an/L	.	16an/L	.	2.A/	pec-	2.a\	pec-	2.cc\	pec-
.	.	.	16an/	.	16an/	.	.	.	.	.	.	.
8A\	.	.	16an/	.	16an/	.	.	.	.	.	.	.
.	.	.	16an/	.	16an/	.	.	.	.	.	.	.
8A\	.	.	16an/	.	16an/	.	.	.	.	.	.	.
.	.	.	16an/	.	16an/	.	.	.	.	.	.	.
8A\	.	.	16an/	.	16an/	.	.	.	.	.	.	.
.	.	.	16an/	.	16an/	.	.	.	.	.	.	.
8A\	.	.	16an/	.	16an/	.	.	.	.	.	.	.
.	.	.	16an/	.	16an/	.	.	.	.	.	.	.
8A\J	.	.	16an/	.	16an/	.	.	.	.	.	.	.
.	.	.	16an/J	.	16an/J	.	.	.	.	.	.	.
!LO:LB:g=original	!	!	!	!	!	!	!	!	!	!	!	!
=54	=54	=54	=54	=54	=54	=54	=54	=54	=54	=54	=54	=54
8Fn\L	X 3	.	16fn/L	.	16fn/L	.	2A/	-ca-	2fn\	-ca-	2cc\	-ca-
.	.	.	16fn/	.	16fn/	.	.	.	.	.	.	.
8Fn\	.	.	16fn/	.	16fn/	.	.	.	.	.	.	.
.	.	.	16fn/	.	16fn/	.	.	.	.	.	.	.
8Fn\	.	.	16fn/	.	16fn/	.	.	.	.	.	.	.
.	.	.	16fn/	.	16fn/	.	.	.	.	.	.	.
8Fn\	.	.	16fn/	.	16fn/	.	.	.	.	.	.	.
.	.	.	16fn/	.	16fn/	.	.	.	.	.	.	.
8Fn\	.	.	16fn/	.	16fn/	.	4A/	-ta	4f\	-ta	4cc\	-ta
.	.	.	16fn/	.	16fn/	.	.	.	.	.	.	.
8Fn\J	.	.	16fn/	.	16fn/	.	.	.	.	.	.	.
.	.	.	16fn/J	.	16fn/J	.	.	.	.	.	.	.
=55	=55	=55	=55	=55	=55	=55	=55	=55	=55	=55	=55	=55
8E\L	X 6	.	16e/L	.	16e/L	.	2.A/	mun-	2.e\	mun-	2.cc\	mun-
.	.	.	16e/	.	16e/	.	.	.	.	.	.	.
8E\	.	.	16e/	.	16e/	.	.	.	.	.	.	.
.	.	.	16e/	.	16e/	.	.	.	.	.	.	.
8E\	.	.	16e/	.	16e/	.	.	.	.	.	.	.
.	.	.	16e/	.	16e/	.	.	.	.	.	.	.
8E\	.	.	16e/	.	16e/	.	.	.	.	.	.	.
.	.	.	16e/	.	16e/	.	.	.	.	.	.	.
8E\	.	.	16e/	.	16e/	.	.	.	.	.	.	.
.	.	.	16e/	.	16e/	.	.	.	.	.	.	.
8E\J	.	.	16e/	.	16e/	.	.	.	.	.	.	.
.	.	.	16e/J	.	16e/J	.	.	.	.	.	.	.
!	!	!	!	!	!	!	!LO:PB:g=original	!	!	!	!	!
=56	=56	=56	=56	=56	=56	=56	=56	=56	=56	=56	=56	=56
8D#X\L	X 6	.	16d#X/L	.	16d#X/L	.	2.A/	-di	2.d#X\	-di	2.cc\	-di
.	.	.	16d#X/	.	16d#X/	.	.	.	.	.	.	.
8D#X\	X 7	.	16d#X/	.	16d#X/	.	.	.	.	.	.	.
.	.	.	16d#X/	.	16d#X/	.	.	.	.	.	.	.
8D#X\	.	.	16d#X/	.	16d#X/	.	.	.	.	.	.	.
.	.	.	16d#X/	.	16d#X/	.	.	.	.	.	.	.
8D#X\	.	.	16d#X/	.	16d#X/	.	.	.	.	.	.	.
.	.	.	16d#X/	.	16d#X/	.	.	.	.	.	.	.
8D#X\	.	.	16d#X/	.	16d#X/	.	.	.	.	.	.	.
.	.	.	16d#X/	.	16d#X/	.	.	.	.	.	.	.
8D#X\J	.	.	16d#X/	.	16d#X/	.	.	.	.	.	.	.
.	.	.	16d#X/J	.	16d#X/J	.	.	.	.	.	.	.
=57	=57	=57	=57	=57	=57	=57	=57	=57	=57	=57	=57	=57
!LO:TX:a:t=P:problem:repetycja 2t: takty 57-58.	!	!	!	!	!	!	!	!	!	!	!	!
8E\L	6 4	.	16e/L	.	16e/L	.	2.A/	mi-	2.e\	Mi-	2.cc\	Mi-
.	.	.	16e/	.	16e/	.	.	.	.	.	.	.
8E\	.	.	16e/	.	16e/	.	.	.	.	.	.	.
.	.	.	16e/	.	16e/	.	.	.	.	.	.	.
8E\	.	.	16e/	.	16e/	.	.	.	.	.	.	.
.	.	.	16e/	.	16e/	.	.	.	.	.	.	.
8E\	.	.	16e/	.	16e/	.	.	.	.	.	.	.
.	.	.	16e/	.	16e/	.	.	.	.	.	.	.
8E\	.	.	16e/	.	16e/	.	.	.	.	.	.	.
.	.	.	16e/	.	16e/	.	.	.	.	.	.	.
8E\J	.	.	16e/	.	16e/	.	.	.	.	.	.	.
.	.	.	16e/J	.	16e/J	.	.	.	.	.	.	.
*Xtremolo	*	*	*	*	*	*	*	*	*	*	*	*
!	!	!	!LO:LB:g=original	!	!	!	!	!	!LO:LB:g=original	!	!	!
=58	=58	=58	=58	=58	=58	=58	=58	=58	=58	=58	=58	=58
8F\L	5 3	.	16fn/L	.	16fn/L	.	4A/	-se-	4f\	-se-	4cc\	-se-
.	.	.	16fn/	.	16fn/	.	.	.	.	.	.	.
8F\	.	.	16fn/	.	16fn/	.	.	.	.	.	.	.
.	.	.	16fn/J	.	16fn/J	.	.	.	.	.	.	.
8E\	.	.	16e/L	.	16e/L	.	4A/	-re-	4e\	-re-	4cc\	-re-
.	.	.	16e/	.	16e/	.	.	.	.	.	.	.
8E\	.	.	16e/	.	16e/	.	.	.	.	.	.	.
.	.	.	16e/J	.	16e/J	.	.	.	.	.	.	.
8D#X\	.	.	16d#X/L	.	16d#X/L	.	4A/	-re	4d#X\	-re	4cc\	-re
.	.	.	16d#X/	.	16d#X/	.	.	.	.	.	.	.
8D#\J	.	.	16d#X/	.	16d#X/	.	.	.	.	.	.	.
.	.	.	16d#X/J	.	16d#X/J	.	.	.	.	.	.	.
=59	=59	=59	=59	=59	=59	=59	=59	=59	=59	=59	=59	=59
*tremolo	*	*	*	*	*	*	*	*	*	*	*	*
8E\L	6 4	.	16e/L	.	16e/L	.	2.A/	mi-	2.e\	mi-	2.cc\	Mi-
.	.	.	16e/	.	16e/	.	.	.	.	.	.	.
8E\	.	.	16e/	.	16e/	.	.	.	.	.	.	.
.	.	.	16e/	.	16e/	.	.	.	.	.	.	.
8E\	.	.	16e/	.	16e/	.	.	.	.	.	.	.
.	.	.	16e/	.	16e/	.	.	.	.	.	.	.
8E\	.	.	16e/	.	16e/	.	.	.	.	.	.	.
.	.	.	16e/	.	16e/	.	.	.	.	.	.	.
8E\	.	.	16e/	.	16e/	.	.	.	.	.	.	.
.	.	.	16e/	.	16e/	.	.	.	.	.	.	.
8E\J	.	.	16e/	.	16e/	.	.	.	.	.	.	.
.	.	.	16e/J	.	16e/J	.	.	.	.	.	.	.
*Xtremolo	*	*	*	*	*	*	*	*	*	*	*	*
=60	=60	=60	=60	=60	=60	=60	=60	=60	=60	=60	=60	=60
8F\L	5 3	.	16fn/L	.	16fn/L	.	4A/	-se-	4f\	-se-	4cc\	-se-
.	.	.	16fn/	.	16fn/	.	.	.	.	.	.	.
8F\	.	.	16fn/	.	16fn/	.	.	.	.	.	.	.
.	.	.	16fn/J	.	16fn/J	.	.	.	.	.	.	.
8E\	.	.	16e/L	.	16e/L	.	4A/	-re-	4e\	-re-	4cc\	-re-
.	.	.	16e/	.	16e/	.	.	.	.	.	.	.
8E\	.	.	16e/	.	16e/	.	.	.	.	.	.	.
.	.	.	16e/J	.	16e/J	.	.	.	.	.	.	.
8D#X\	.	.	16d#X/L	.	16d#X/L	.	4A/	-re	4d#X\	-re	4cc\	-re
.	.	.	16d#X/	.	16d#X/	.	.	.	.	.	.	.
8D#\J	.	.	16d#X/	.	16d#X/	.	.	.	.	.	.	.
.	.	.	16d#X/J	.	16d#X/J	.	.	.	.	.	.	.
*	*	*	*Xtremolo	*	*Xtremolo	*	*	*	*	*	*	*
=61	=61	=61	=61	=61	=61	=61	=61	=61	=61	=61	=61	=61
4E\	5 #	.	4e/	.	4e/	.	2.G#X/	no-	2.e\	no-	2.b\	no-
4E\	.	.	4e/	.	4e/	.	.	.	.	.	.	.
4E\	.	.	4e/	.	4e/	.	.	.	.	.	.	.
=62	=62	=62	=62	=62	=62	=62	=62	=62	=62	=62	=62	=62
!	!	!	!	!	!	!	!LO:SIC:s=4G#	!	!	!	!LO:SIC:s=4b	!
8E\L	.	.	8e/L	.	8e/L	.	4G/	-bis	4e\	-bis	4a\	-bis
8F\	.	.	8f/	.	8f/	.	.	.	.	.	.	.
8E\	.	.	8e/	.	8e/	.	4r	.	4r	.	4r	.
8Dn\	.	.	8dn/	.	8d/	.	.	.	.	.	.	.
8C\	.	.	8c/	.	8c/	.	4r	.	4r	.	4r	.
8BB\J	.	.	8B/J	.	8B/J	.	.	.	.	.	.	.
!	!	!	!	!	!LO:LB:g=original	!	!	!	!	!	!	!
=63	=63	=63	=63	=63	=63	=63	=63	=63	=63	=63	=63	=63
*	*	*	*tremolo	*	*	*	*	*	*	*	*	*
!	!	!	!	!LO:DY:a	!	!LO:DY:a	!	!	!LO:TX:a:t=14.	!	!LO:TX:a:t=14.	!
!	!	!	!	!	!	!	!	!	!LO:N:vis=0	!	!LO:N:vis=00	!
!	!	!	!	!LO:HP:a:i:t=p.	!	!LO:HP:a:i:t=piano	!	!	!	!	!	!
4r	.	.	8A/L	p	8A/L	p	4A/	Quo-	0.r	.	0.r	.
.	.	.	8c/	.	8e/J	.	.	.	.	.	.	.
!	!	!LO:DY:rj	!	!	!	!	!	!	!	!	!	!
!	!	!LO:DY:b	!	!	!	!	!	!	!	!	!	!
!	!	!LO:HP:b:i:t=pia	!	!	!	!	!	!	!	!	!	!
4A\	X n	p	8A/	.	8c/L	.	16A/LL	-ni-	.	.	.	.
.	.	.	.	.	.	.	16G#X/	.	.	.	.	.
.	.	.	8c/	.	8e/	.	16A/	.	.	.	.	.
.	.	.	.	.	.	.	16B/JJ	.	.	.	.	.
4A\	.	.	8A/	.	8c/	.	8c\	-am	.	.	.	.
.	.	.	8c/J	.	8e/J	.	8A\	tu	.	.	.	.
!	!	!	!	!	!	!	!LO:LB:g=original	!	!	!	!	!
=64	=64	=64	=64	=64	=64	=64	=64	=64	=64	=64	=64	=64
*	*	*	*	*	*tremolo	*	*	*	*	*	*	*
4r	.	.	8G#X/L	.	8B/L	.	8A/L	so-	.	.	.	.
.	.	.	8B/	.	8d/	.	8G#X/J	.	.	.	.	.
4B\	X 6|	.	8G#X/	.	8B/	.	2G#/	-lus	.	.	.	.
.	.	.	8B/	.	8d/	.	.	.	.	.	.	.
4B\	.	.	8G#X/	.	8B/	.	.	.	.	.	.	.
.	.	.	8B/J	.	8d/J	.	.	.	.	.	.	.
=65	=65	=65	=65	=65	=65	=65	=65	=65	=65	=65	=65	=65
4r	.	.	8e/L	.	8g#X/L	.	4.B\	tu-	.	.	.	.
.	.	.	8g#X/	.	8b/	.	.	.	.	.	.	.
4G#X\	X 3	.	8e/	.	8g#X/	.	.	.	.	.	.	.
.	.	.	8g#X/	.	8b/	.	16A\LL	.	.	.	.	.
.	.	.	.	.	.	.	16B\JJ	.	.	.	.	.
4G#\	X 5	.	8e/	.	8g#X/	.	8d\	-so-	.	.	.	.
.	.	.	8g#X/J	.	8b/J	.	8B\	-lus	.	.	.	.
*	*	*	*Xtremolo	*	*Xtremolo	*	*	*	*	*	*	*
=66	=66	=66	=66	=66	=66	=66	=66	=66	=66	=66	=66	=66
4r	.	.	8g#X/L	.	8b/L	.	8B\L	san-	.	.	.	.
.	.	.	8e/J	.	8a/	.	8A\J	.	.	.	.	.
4A\	X n_	.	8e/L	.	8a/	.	4.A\	-ctus	.	.	.	.
.	.	.	8c/	.	8e/	.	.	.	.	.	.	.
4A\	.	.	8A/	.	8c/	.	.	.	.	.	.	.
.	x	.	8c/J	.	8e/J	.	8c\	tu	.	.	.	.
!LO:PB:g=original	!	!	!	!	!	!	!	!	!	!	!	!
=67	=67	=67	=67	=67	=67	=67	=67	=67	=67	=67	=67	=67
!	!	!	!	!	!	!	!	!	!LO:N:vis=00	!	!LO:N:vis=00	!
4r	.	.	4e/	.	4g/	.	8e\L	so-	0.r	.	0.r	.
.	.	.	.	.	.	.	8c\J	.	.	.	.	.
8r	.	.	8r	.	8r	.	4.G/	-lus	.	.	.	.
8c\L	.	.	8c/L	.	8e/L	.	.	.	.	.	.	.
8d\	.	.	8d/	.	8f/	.	.	.	.	.	.	.
8e\J	.	.	8e/J	.	8g/J	.	8e\	Do-	.	.	.	.
!	!	!	!LO:LB:g=original	!	!	!	!	!	!	!	!	!
=68	=68	=68	=68	=68	=68	=68	=68	=68	=68	=68	=68	=68
4r	.	.	4d/	.	4f/	.	8f\L	-mi-	.	.	.	.
.	.	.	.	.	.	.	8d\J	.	.	.	.	.
8r	.	.	8r	.	8r	.	8B\	-nus	.	.	.	.
8G\L	X 7	.	8B/L	.	8d/L	.	8d\	tu	.	.	.	.
8A\	.	.	8c/	.	8e/	.	8e\	so-	.	.	.	.
8B\J	.	.	8d/J	.	8f/J	.	8f\	-lus	.	.	.	.
!	!	!	!	!	!	!	!LO:LB:g=original	!	!	!	!	!
=69	=69	=69	=69	=69	=69	=69	=69	=69	=69	=69	=69	=69
!	!	!	!	!	!LO:TX:a:t=P:problem:mixed beam	!	!	!	!	!	!	!
4c\	.	.	8e/L	.	16e/LL	.	16e\LL	al-	.	.	.	.
.	.	.	.	.	16ee\	.	16g\JJ	.	.	.	.	.
.	.	.	8g/	.	16ff\	.	16a\LL	-tiſ-	.	.	.	.
.	.	.	.	.	16ee\JJ	.	16g\JJ	.	.	.	.	.
4F\	X 6	.	8d/	.	8dd\L	.	8f\	-si-	.	.	.	.
.	.	.	8g/	.	8dd\J	.	8f\	-mus	.	.	.	.
4F#X\	7 5	.	8c/	.	8cc\L	.	8e\	Je-	.	.	.	.
.	.	.	8g/J	.	16ee\L	.	16g\LL	-su-	.	.	.	.
.	.	.	.	.	16cc\JJ	.	16e\JJ	.	.	.	.	.
=70	=70	=70	=70	=70	=70	=70	=70	=70	=70	=70	=70	=70
4G\	6 4	.	4g/	.	4cc\	.	4e\	-Chri-	.	.	.	.
.	.	.	.	.	16qqb/L	.	16qqd/LL	.	.	.	.	.
.	.	.	.	.	16qqcc/J	.	16qqe/JJ	.	.	.	.	.
4GG/	5 3	.	8G/	.	16b\LL	.	8d\	-ste	.	.	.	.
.	.	.	.	.	16g\	.	.	.	.	.	.	.
.	.	.	8r	.	16a\	.	8r	.	.	.	.	.
.	.	.	.	.	16b\JJ	.	.	.	.	.	.	.
4r	.	.	4r	.	16cc\LL	.	4r	.	.	.	.	.
.	.	.	.	.	16dd\	.	.	.	.	.	.	.
.	.	.	.	.	16ee\	.	.	.	.	.	.	.
.	.	.	.	.	16ff\JJ	.	.	.	.	.	.	.
!	!	!	!	!	!LO:LB:g=original	!	!	!	!	!	!	!
=71	=71	=71	=71	=71	=71	=71	=71	=71	=71	=71	=71	=71
*	*	*	*tremolo	*	*	*	*	*	*	*	*	*
!LO:TX:a:t=6.	!	!	!	!LO:DY:a	!	!	!LO:TX:a:t=6.	!	!	!	!	!
!LO:N:vis=00	!	!	!	!LO:HP:a:i:t=p.	!	!LO:N:vis=00	!	!	!LO:N:vis=00	!	!LO:N:vis=00	!
0.r	.	.	8c/L	p	4.gg/	.	0.r	.	0.r	.	0.r	.
.	.	.	8e/	.	.	.	.	.	.	.	.	.
.	.	.	8c/	.	.	.	.	.	.	.	.	.
!	!	!	!	!	!LO:TX:b:i:t=Solo.	!	!	!	!	!	!	!
.	.	.	8e/	.	16ff#X/LL	.	.	.	.	.	.	.
.	.	.	.	.	16gg/JJ	.	.	.	.	.	.	.
.	.	.	8c/	.	8ccc/L	.	.	.	.	.	.	.
.	.	.	8e/J	.	8gg/J	.	.	.	.	.	.	.
=72	=72	=72	=72	=72	=72	=72	=72	=72	=72	=72	=72	=72
.	.	.	8c/L	.	16gg#X\LL	.	.	.	.	.	.	.
.	.	.	.	.	16aa\	.	.	.	.	.	.	.
.	.	.	8f/	.	16bb-X\	.	.	.	.	.	.	.
.	.	.	.	.	16aa\JJ	.	.	.	.	.	.	.
.	.	.	8c/	.	4.ccc\	.	.	.	.	.	.	.
.	.	.	8f/	.	.	.	.	.	.	.	.	.
.	.	.	8c/	.	.	.	.	.	.	.	.	.
.	.	.	8f/J	.	8aa\	.	.	.	.	.	.	.
*	*	*	*Xtremolo	*	*	*	*	*	*	*	*	*
=73	=73	=73	=73	=73	=73	=73	=73	=73	=73	=73	=73	=73
.	.	.	8c/L	.	16bb\LL	.	.	.	.	.	.	.
.	.	.	.	.	16aa\	.	.	.	.	.	.	.
.	.	.	8f/J	.	16gg\	.	.	.	.	.	.	.
.	.	.	.	.	16aa\JJ	.	.	.	.	.	.	.
*	*	*	*tremolo	*	*	*	*	*	*	*	*	*
.	.	.	8c/L	.	4.gg\	.	.	.	.	.	.	.
.	.	.	8e/	.	.	.	.	.	.	.	.	.
.	.	.	8c/	.	.	.	.	.	.	.	.	.
.	.	.	8e/J	.	16ee\LL	.	.	.	.	.	.	.
.	.	.	.	.	16gg\JJ	.	.	.	.	.	.	.
*	*	*	*Xtremolo	*	*	*	*	*	*	*	*	*
=74	=74	=74	=74	=74	=74	=74	=74	=74	=74	=74	=74	=74
.	.	.	4B/ 4d	.	16ff\LL	.	.	.	.	.	.	.
.	.	.	.	.	16gg\	.	.	.	.	.	.	.
.	.	.	.	.	16aa\	.	.	.	.	.	.	.
.	.	.	.	.	16gg\JJ	.	.	.	.	.	.	.
.	.	.	4r	.	16ff\LL	.	.	.	.	.	.	.
.	.	.	.	.	16ee\	.	.	.	.	.	.	.
.	.	.	.	.	16dd\	.	.	.	.	.	.	.
.	.	.	.	.	16cc\JJ	.	.	.	.	.	.	.
.	.	.	4r	.	16b/LL	.	.	.	.	.	.	.
.	.	.	.	.	16cc/	.	.	.	.	.	.	.
.	.	.	.	.	16b/	.	.	.	.	.	.	.
.	.	.	.	.	16a/JJ	.	.	.	.	.	.	.
=75	=75	=75	=75	=75	=75	=75	=75	=75	=75	=75	=75	=75
!LO:N:vis=0	!	!	!	!	!	!	!LO:N:vis=0	!	!LO:N:vis=0	!	!LO:N:vis=0	!
1.r	.	.	8G/L	.	8g/L	.	1.r	.	1.r	.	1.r	.
.	.	.	16B/L	.	16b/L	.	.	.	.	.	.	.
.	.	.	16c/JJ	.	16cc/JJ	.	.	.	.	.	.	.
.	.	.	8d/L	.	8dd\L	.	.	.	.	.	.	.
.	.	.	8B/	.	8dd\	.	.	.	.	.	.	.
.	.	.	8c/	.	8ee\	.	.	.	.	.	.	.
.	.	.	8c/J	.	8ee\J	.	.	.	.	.	.	.
=76	=76	=76	=76	=76	=76	=76	=76	=76	=76	=76	=76	=76
.	.	.	8d/L	.	4.ff\	.	.	.	.	.	.	.
.	.	.	8B/	.	.	.	.	.	.	.	.	.
.	.	.	8d/	.	.	.	.	.	.	.	.	.
.	.	.	8f/	.	16ee\LL	.	.	.	.	.	.	.
.	.	.	.	.	16ff\JJ	.	.	.	.	.	.	.
.	.	.	8g/	.	16gg\LL	.	.	.	.	.	.	.
.	.	.	.	.	16ff\	.	.	.	.	.	.	.
.	.	.	8G/J	.	16ee\	.	.	.	.	.	.	.
.	.	.	.	.	16dd\JJ	.	.	.	.	.	.	.
!	!	!	!	!	!LO:LB:g=original	!	!	!	!	!	!	!
=77	=77	=77	=77	=77	=77	=77	=77	=77	=77	=77	=77	=77
!	!	!	!LO:TX:a:t=P:problem:mixed beam	!	!	!	!	!	!	!	!	!
16c'>\LL	.	.	16c/LL	.	16cc\LL	.	16c\LL	Cum	16cc\LL	Cum	16cc\LL	Cum
16B'>\	.	.	16b\	.	16b\	.	16B\	.	16b\	.	16b\	.
16c'>\	.	.	16cc\	.	16cc\	.	16c\	.	16cc\	.	16cc\	.
16d'>\JJ	.	.	16dd\JJ	.	16dd\JJ	.	16d\JJ	.	16dd\JJ	.	16dd\JJ	.
!	!	!	!LO:LB:g=original	!	!	!	!	!	!	!	!	!
4e\	.	.	4ee\	.	4ee\	.	4e\	San-	4ee\	San-	4ee\	San-
4G\	.	.	4g/	.	4g/	.	4G/	-cto	4g\	-cto	4g\	-cto
=78	=78	=78	=78	=78	=78	=78	=78	=78	=78	=78	=78	=78
16A'>\LL	.	.	16a/LL	.	16a/LL	.	16A/LL	Spi-	16a\LL	Spi-	16a\LL	Spi-
16G'>\	.	.	16g/	.	16g/	.	16G/	.	16g\	.	16g\	.
16A'>\	.	.	16a/	.	16a/	.	16A/	.	16a\	.	16a\	.
16B'>\JJ	.	.	16b/JJ	.	16b/JJ	.	16B/JJ	.	16b\JJ	.	16b\JJ	.
!	!	!	!	!	!	!	!	!	!	!	!LO:LB:g=original	!
4c'>\	.	.	4cc\	.	4cc\	.	4c\	-ri-	4cc\	-ri-	4cc\	-ri-
!	!	!	!	!	!	!	!	!	!	!LO:SIC:s=-tu	!	!
4E'>\	.	.	4e/	.	4e/	.	4E/	-tu	4e\	-tui	4g\	-tu
!	!	!	!	!	!	!	!LO:LB:g=original	!	!	!	!	!
=79	=79	=79	=79	=79	=79	=79	=79	=79	=79	=79	=79	=79
16F'>\LL	.	.	16f/LL	.	16f/LL	.	16F/	in	16f\	in	16f/	in
16E'>\	.	.	16e/	.	16e/	.	16E/	glo-	16e\	glo-	16e/	glo-
16F'>\	.	.	16f/	.	16f/	.	16F/	-ri-	16f\	-ri-	16f/	-ri-
16G'>\JJ	.	.	16g/JJ	.	16g/JJ	.	16G/	-a	16g\	-a	16g/	-a
!	!	!	!	!	!	!	!	!	!LO:LB:g=original	!	!	!
8A'>\L	.	.	8a/L	.	8a/L	.	8A/	De-	8a\	De-	8a/	De-
8G'>\	.	.	8g/	.	8g/	.	8G/	-i	8g\	-i	8g/	-i
8F'>\	.	.	8f/	.	8f/	.	8F/	Pa-	8f\	Pa-	8f/	Pa-
8E'>\J	.	.	8e/J	.	8e/J	.	8E/	-tris	8e\	-tris	8e/	-tris.
=80	=80	=80	=80	=80	=80	=80	=80	=80	=80	=80	=80	=80
4D'>\	.	.	4d/	.	4d/	.	4D/	a-	4d\	a-	4d/	a-
4G'>\	.	.	4g/	.	4g/	.	4G/	-men	4g\	-men	4g/	-men
4r	.	.	4r	.	4r	.	4r	.	4r	.	4r	.
!LO:LB:g=original	!	!	!	!	!	!	!	!	!	!	!	!
=81	=81	=81	=81	=81	=81	=81	=81	=81	=81	=81	=81	=81
!LO:TX:a:t=P:problem:w źródle łuk nad jedynką	!	!	!LO:TX:a:t=P:problem:w źródle łuk nad jedynką	!	!	!	!LO:TX:a:t=P:problem:w źródle łuk nad jedynką	!	!	!	!LO:TX:a:t=P:problem:w źródle łuk nad jedynką	!
!LO:TX:a:t=1	!	!	!LO:TX:a:t=1	!	!	!	!LO:TX:a:t=1	!	!	!	!LO:TX:a:t=1	!
2.r	.	.	2.r	.	16dd\LL	.	2.r	.	2.g\	a-	2.r	.
.	.	.	.	.	16dd\	.	.	.	.	.	.	.
.	.	.	.	.	16gg\	.	.	.	.	.	.	.
.	.	.	.	.	16gg\JJ	.	.	.	.	.	.	.
.	.	.	.	.	16ff\LL	.	.	.	.	.	.	.
.	.	.	.	.	16ff\	.	.	.	.	.	.	.
.	.	.	.	.	16gg\	.	.	.	.	.	.	.
.	.	.	.	.	16gg\JJ	.	.	.	.	.	.	.
.	.	.	.	.	16ee\LL	.	.	.	.	.	.	.
.	.	.	.	.	16ee\	.	.	.	.	.	.	.
.	.	.	.	.	16gg\	.	.	.	.	.	.	.
.	.	.	.	.	16gg\JJ	.	.	.	.	.	.	.
=82	=82	=82	=82	=82	=82	=82	=82	=82	=82	=82	=82	=82
4r	.	.	4r	.	16dd\LL	.	4r	.	4g\	-men	4r	.
.	.	.	.	.	16dd\	.	.	.	.	.	.	.
.	.	.	.	.	16gg\	.	.	.	.	.	.	.
.	.	.	.	.	16gg\JJ	.	.	.	.	.	.	.
4GG/	.	.	8d 8B/L	.	8G/L 8d 8b	.	4d\	A-	4f\	a-	4b\	a-
.	.	.	8d 8B/J	.	8G/J 8d 8b	.	.	.	.	.	.	.
4C/	.	.	4e 4G/	.	4G/ 4e 4cc	.	4e\	-men	4e\	-men	4cc\	-men
!	!	!	!	!	!LO:LB:g=original	!	!	!	!	!	!	!
=83	=83	=83	=83	=83	=83	=83	=83	=83	=83	=83	=83	=83
!LO:TX:a:t=P:problem:w źródle łuk nad jedynką	!	!	!LO:TX:a:t=P:problem:w źródle łuk nad jedynką	!	!	!	!LO:TX:a:t=P:problem:w źródle łuk nad jedynką	!	!LO:TX:a:t=P:problem:w źródle łuk nad jedynką	!	!	!
!LO:TX:a:t=1	!	!	!LO:TX:a:t=1	!	!LO:TX:a:t=P:problem:mixed beam	!	!LO:TX:a:t=1	!	!LO:TX:a:t=1	!	!	!
2.r	.	.	2.r	.	16g/LL	.	2.r	.	2.r	.	2.gg\	a-
.	.	.	.	.	16g/	.	.	.	.	.	.	.
.	.	.	.	.	16gg\	.	.	.	.	.	.	.
.	.	.	.	.	16gg\JJ	.	.	.	.	.	.	.
.	.	.	.	.	16ff\LL	.	.	.	.	.	.	.
.	.	.	.	.	16ff\	.	.	.	.	.	.	.
.	.	.	.	.	16gg\	.	.	.	.	.	.	.
.	.	.	.	.	16gg\JJ	.	.	.	.	.	.	.
.	.	.	.	.	16ee\LL	.	.	.	.	.	.	.
.	.	.	.	.	16ee\	.	.	.	.	.	.	.
.	.	.	.	.	16gg\	.	.	.	.	.	.	.
.	.	.	.	.	16gg\JJ	.	.	.	.	.	.	.
=84	=84	=84	=84	=84	=84	=84	=84	=84	=84	=84	=84	=84
4r	.	.	4r	.	16dd\LL	.	4r	.	4r	.	4gg\	-men
.	.	.	.	.	16dd\	.	.	.	.	.	.	.
.	.	.	.	.	16gg\	.	.	.	.	.	.	.
.	.	.	.	.	16gg\JJ	.	.	.	.	.	.	.
4G\	.	.	4dd\	.	4dd\ 4bb	.	4B\	a-	4d\	a-	4dd\	a-
4c\	.	.	4ee\	.	4ee\ 4ccc	.	4c\	.	4g\	.	4ee\	.
=85	=85	=85	=85	=85	=85	=85	=85	=85	=85	=85	=85	=85
*	*	*	*tremolo	*	*	*	*	*	*	*	*	*
!	!	!	!	!	!LO:TX:a:t=|:problem	!	!	!	!	!	!	!
4F\	X 3	.	16ff\L	.	16aa\LL	.	4c\	-men	4a\	-men	4ff\	-men
!	!	!	!	!	!LO:TX:a:t=|:problem	!	!	!	!	!	!	!
.	.	.	16ff\	.	16gg\	.	.	.	.	.	.	.
!	!	!	!	!	!LO:TX:a:t=|:problem	!	!	!	!	!	!	!
.	.	.	16ff\	.	16aa\	.	.	.	.	.	.	.
!	!	!	!	!	!LO:TX:a:t=|:problem	!	!	!	!	!	!	!
.	.	.	16ff\	.	16bb\JJ	.	.	.	.	.	.	.
!	!	!	!	!	!LO:TX:a:t=|:problem	!	!	!	!	!	!	!
4r	.	.	16ff\	.	16ccc\LL	.	4r	.	4r	.	4r	.
!	!	!	!	!	!LO:TX:a:t=|:problem	!	!	!	!	!	!	!
.	.	.	16ff\	.	16bb\	.	.	.	.	.	.	.
!	!	!	!	!	!LO:TX:a:t=|:problem	!	!	!	!	!	!	!
.	.	.	16ff\	.	16ccc\	.	.	.	.	.	.	.
!	!	!	!	!	!LO:TX:a:t=|:problem	!	!	!	!	!	!	!
.	.	.	16ff\J	.	16aa\JJ	.	.	.	.	.	.	.
!	!	!	!	!	!LO:TX:a:t=|:problem	!	!	!	!	!	!	!
4C/	.	.	16ee\L	.	8gg\L	.	4c\	a-	4g\	a-	4ee\	a-
!	!	!	!	!	!LO:TX:a:t=|:problem	!	!	!	!	!	!	!
.	.	.	16ee\	.	.	.	.	.	.	.	.	.
.	.	.	16ee\	.	8ee\J	.	.	.	.	.	.	.
.	.	.	16ee\J	.	.	.	.	.	.	.	.	.
=86	=86	=86	=86	=86	=86	=86	=86	=86	=86	=86	=86	=86
!	!	!	!	!	!LO:TX:a:t=|:problem	!	!	!	!	!	!	!
4BB/	X 5	.	16dd\L	.	16ff\LL	.	4B\	-men	4f\	-men	4dd\	-men
!	!	!	!	!	!LO:TX:a:t=|:problem	!	!	!	!	!	!	!
.	.	.	16dd\	.	16ee\	.	.	.	.	.	.	.
!	!	!	!	!	!LO:TX:a:t=|:problem	!	!	!	!	!	!	!
.	.	.	16dd\	.	16ff\	.	.	.	.	.	.	.
!	!	!	!	!	!LO:TX:a:t=|:problem	!	!	!	!	!	!	!
.	.	.	16dd\	.	16gg\JJ	.	.	.	.	.	.	.
!	!	!	!	!	!LO:TX:a:t=|:problem	!	!	!	!	!	!	!
4r	.	.	16dd\	.	16aa\LL	.	4r	.	4r	.	4r	.
!	!	!	!	!	!LO:TX:a:t=|:problem	!	!	!	!	!	!	!
.	.	.	16dd\	.	16gg\	.	.	.	.	.	.	.
!	!	!	!	!	!LO:TX:a:t=|:problem	!	!	!	!	!	!	!
.	.	.	16dd\	.	16aa\	.	.	.	.	.	.	.
!	!	!	!	!	!LO:TX:a:t=|:problem	!	!	!	!	!	!	!
.	.	.	16dd\J	.	16ff\JJ	.	.	.	.	.	.	.
4C/	.	.	16cc\L	.	8ee\L	.	4G/	a-	4e\	a-	4cc\	a-
.	.	.	16cc\	.	.	.	.	.	.	.	.	.
.	.	.	16cc\	.	8cc\J	.	.	.	.	.	.	.
.	.	.	16cc\J	.	.	.	.	.	.	.	.	.
*	*	*	*Xtremolo	*	*	*	*	*	*	*	*	*
=87	=87	=87	=87	=87	=87	=87	=87	=87	=87	=87	=87	=87
!LO:TX:a:t=P:problem:mixed beam	!	!	!	!	!	!	!	!	!	!	!	!
!	!	!	!	!	!LO:TX:a:t=|:problem	!	!	!	!	!	!	!
8F\L	X 6_	.	8b/L	.	16dd\LL	.	2.G/	.	4f\	.	4dd\	.
!	!	!	!	!	!LO:TX:a:t=|:problem	!	!	!	!	!	!	!
.	.	.	.	.	16ee\	.	.	.	.	.	.	.
!	!	!	!	!	!LO:TX:a:t=|:problem	!	!	!	!	!	!	!
8F\	.	.	8f/J	.	16ff\	.	.	.	.	.	.	.
!	!	!	!	!	!LO:TX:a:t=|:problem	!	!	!	!	!	!	!
.	.	.	.	.	16dd\JJ	.	.	.	.	.	.	.
8G\	.	.	4e/	.	4cc\	.	.	.	4e\	.	4cc\	.
8G\	6 4	.	.	.	.	.	.	.	.	.	.	.
8GG/	5_ 3_	.	4d/	.	4b\	.	.	.	4d\	.	4b\	.
8GG/J	x	.	.	.	.	.	.	.	.	.	.	.
!	!	!	!	!	!	!	!LO:LB:g=original	!	!	!	!	!
=88	=88	=88	=88	=88	=88	=88	=88	=88	=88	=88	=88	=88
4C/	.	.	4c/ 4e	.	4G/ 4e 4cc	.	4G/	-men	4e\	-men	4cc\	-men
4r	.	.	4r	.	4r	.	4r	.	4r	.	4r	.
4GG/	.	.	4G/ 4f	.	4G/ 4d 4b	.	4B\	a-	4d\	a-	4dd\	a-
=89	=89	=89	=89	=89	=89	=89	=89	=89	=89	=89	=89	=89
4C/	.	.	4c/ 4e	.	4G/ 4e 4cc	.	4c\	-men	4g\	-men	4ee\	-men
4r	.	.	4r	.	4r	.	4r	.	4r	.	4r	.
4r	.	.	4r	.	4r	.	4r	.	4r	.	4r	.
==	==	==	==	==	==	==	==	==	==	==	==	==
*-	*-	*-	*-	*-	*-	*-	*-	*-	*-	*-	*-	*-
!!!system-decoration: [(s1,s2,s3)][(s4,s5)]s6
!!!RDF**kern: > = above
!!!RDF**kern: < = below
!!!ENC: Andrzej Borzym
!!!END: 2020-05-23
!!!EED: Mateusz Mrugas
!!!EST: 2020-11-08
